images/icons/twitter.svg

<svg width="24" height="24" viewBox="0 0 24 24" fill="none" xmlns="http://www.w3.org/2000/svg">
<path d="M22 5.92375C21.2563 6.25 20.4637 6.46625 19.6375 6.57125C20.4875 6.06375 21.1363 5.26625 21.4412 4.305C20.6488 4.7775 19.7738 5.11125 18.8412 5.2975C18.0887 4.49625 17.0162 4 15.8462 4C13.5763 4 11.7487 5.8425 11.7487 8.10125C11.7487 8.42625 11.7762 8.73875 11.8438 9.03625C8.435 8.87 5.41875 7.23625 3.3925 4.7475C3.03875 5.36125 2.83125 6.06375 2.83125 6.82C2.83125 8.24 3.5625 9.49875 4.6525 10.2275C3.99375 10.215 3.3475 10.0238 2.8 9.7225C2.8 9.735 2.8 9.75125 2.8 9.7675C2.8 11.76 4.22125 13.415 6.085 13.7962C5.75125 13.8875 5.3875 13.9312 5.01 13.9312C4.7475 13.9312 4.4825 13.9163 4.23375 13.8612C4.765 15.485 6.2725 16.6788 8.065 16.7175C6.67 17.8088 4.89875 18.4662 2.98125 18.4662C2.645 18.4662 2.3225 18.4513 2 18.41C3.81625 19.5813 5.96875 20.25 8.29 20.25C15.835 20.25 19.96 14 19.96 8.5825C19.96 8.40125 19.9538 8.22625 19.945 8.0525C20.7588 7.475 21.4425 6.75375 22 5.92375Z" fill="#111111"/>
</svg>

<svg xmlns="http://www.w3.org/2000/svg" width="24" height="24" fill="none"><path fill="#111" d="M22 5.924a8.549 8.549 0 0 1-2.363.647 4.077 4.077 0 0 0 1.804-2.266 8.192 8.192 0 0 1-2.6.993 4.099 4.099 0 0 0-7.093 2.804c0 .324.028.637.096.934-3.409-.166-6.425-1.8-8.451-4.288A4.128 4.128 0 0 0 2.83 6.82c0 1.42.732 2.679 1.821 3.407A4.049 4.049 0 0 1 2.8 9.722v.046a4.119 4.119 0 0 0 3.285 4.028 4.09 4.09 0 0 1-1.075.135c-.263 0-.527-.015-.776-.07.531 1.624 2.038 2.818 3.831 2.857a8.238 8.238 0 0 1-5.084 1.748A7.67 7.67 0 0 1 2 18.41a11.543 11.543 0 0 0 6.29 1.84c7.545 0 11.67-6.25 11.67-11.668 0-.18-.006-.356-.015-.53A8.179 8.179 0 0 0 22 5.925Z"/></svg>
